Adwaita++/actions/22/format-text-italic.svg

<svg height="22" viewBox="0 0 22 22" width="22" xmlns="http://www.w3.org/2000/svg">
  <path d="m4.5 3v2h6c.42816 0 .59383.26733.46875.71875l-.34375 1.28125h-5.25c-1.8385 0-3.1251 1.3524-3.5 2.75-.18743.69881-.16219 1.47885.25 2.15625.41219.67742 1.24805 1.09375 2.15625 1.09375h6c.71855-.00001.96875-.71875.96875-.71875l1.65625-6c.43468-1.5688-.7261-3.28125-2.40625-3.28125zm.875 6h4.6875l-.5625 2h-5.21875c-.39787 0-.42459-.0837-.46875-.15625-.0442-.0726-.0808-.29256 0-.59375.16157-.60237.71778-1.25 1.5625-1.25z" fill="#444" transform="translate(3 3)"/>
</svg>

<svg xmlns="http://www.w3.org/2000/svg" width="22" height="22" viewBox="0 0 22 22">
 <defs>
  <style id="current-color-scheme" type="text/css">
   .ColorScheme-Text { color:#444444; } .ColorScheme-Highlight { color:#4285f4; }
  </style>
 </defs>
 <path style="fill:currentColor" class="ColorScheme-Text" d="M 4.5 3 L 4.5 5 L 10.5 5 C 10.92816 5 11.09383 5.26733 10.96875 5.71875 L 10.625 7 L 5.375 7 C 3.5365 7 2.2499 8.3524 1.875 9.75 C 1.68757 10.44881 1.71281 11.22885 2.125 11.90625 C 2.53719 12.58367 3.37305 13 4.28125 13 L 10.28125 13 C 10.9998 12.99999 11.25 12.28125 11.25 12.28125 L 12.90625 6.28125 C 13.34093 4.71245 12.18015 3 10.5 3 L 4.5 3 z M 5.375 9 L 10.0625 9 L 9.5 11 L 4.28125 11 C 3.88338 11 3.85666 10.9163 3.8125 10.84375 C 3.7683 10.77115 3.7317 10.55119 3.8125 10.25 C 3.97407 9.64763 4.53028 9 5.375 9 z" transform="translate(3 3)"/>
</svg>
